X:1
T:069 - Aleluia
T:Letra: Christopher Wordsworth (1807-1885)
T:Trad.: Salomão Luiz Ginsburg (1867-1927)
T:Música: James McGranahan (1840-1907)
L:1/8
M:4/4
Q:1/4=100
K:C
V:1
 (3(GA)B | "C"c4- c3/G/ E3/A/ | G2 G4 G3/c/ | "G"B3 B "G7"A2 B2 | "C"c4z2 (3(GA)B | c4- c3/G/ E3/A/ | G2 G4 G3/B/ | "G"d3 B "D"A2 "D7"d2 | "G"G6z2 | G2 B2 "G7"d2 G2 | ("C"Gc) (cd) e2 c2 | "G"G2 B2 d2 G2 | (AB) ("Am"cd) "E"e3z | "E7"e3 d "Am"c3 c | "Dm"d2 e2 f3/2e/ f3/2d/ | "C"c3 d "C/G"c2 "G"B2 | "C"c4z2 |]
w: 1.~A_le-lui_a! A-le-lui-a! Gra-tos hi-nos en-to-ai! Ju_bi-lo_sos e con-ten-tes Hi-nos a Je-sus can-tai! Pra li-vrar-nos do_ pe_ca-do Tris-te mor-te pa_de_ceu, E da mor-te tri-un-fan-do,  E-le vi-dae-ter-na deu.
w: 2.~Je_sus Cris_to,o Rei da gló-ria, O pe-ca-doa-ni-qui-lou! Eal_can-çou_ a mes-ma bên-ção Pa-raos queE-le res-ga-tou. Eis mi-lha-res de_ mi_lha-res A pres-tar-lhea-do_ra_ção, Des-co-brin-do, na sua o-bra, Vi-da, luz e sal-va-ção.
w: 3.~A_le-lui_a! A-le-lui-a! A Je-sus to-doo lou-vor! A_le-lui_ae-ter-na-men-te,  Ao ben-di-to Re-den-tor! A-le-lui-aaoEs-pí_ri-to San-to, Que nos dá con-so_lo e paz; A-le-lui-aao Pai e-ter-no, Deus da gra-ça, Deus da paz!
W: 
W: 
W: 1. Aleluia! Aleluia!
W: Gratos hinos entoai!
W: Jubilosos e contentes
W: Hinos a Jesus cantai!
W: Pra livrar-nos do pecado
W: Triste morte padeceu,
W: E da morte triunfando, 
W: Ele vida eterna deu.
W: 
W: 2. Jesus Cristo, o Rei da glória,
W: O pecado aniquilou!
W: E alcançou a mesma bênção
W: Para os que Ele resgatou.
W: Eis milhares de milhares
W: A prestar-lhe adoração,
W: Descobrindo, na sua obra,
W: Vida, luz e salvação.
W: 
W: 
W: 
W: 3. Aleluia! Aleluia!
W: A Jesus todo o louvor!
W: Aleluia eternamente, 
W: Ao bendito Redentor!
W: Aleluia ao Espírito Santo,
W: Que nos dá consolo e paz;
W: Aleluia ao Pai eterno,
W: Deus da graça, Deus da paz!
W:         
W: 





